X:1
T:Title
%%score { 1 | ( 2 3 ) } { 4 | 5 }
L:1/8
Q:1/4=105
M:4/4
K:Bb
V:1 treble nm="Grand Piano, Soprano"
V:2 treble 
V:3 treble 
V:4 bass nm="Choir Pad, Chesham, 87.87 D"
V:5 bass 
V:1
 F2 F2 B2 B2 | ABcA B2 F2 | d2 d2 dcBA | G2 c2 F4 | F2 F2 B2 B2 | ABcA B2 F2 | d2 d2 dcBA | %7
w: By~Archer~Thompson~Gurney~(1820\-1887) * * *|||||||
 G2 c2 F4 | B3 _A G2 G2 | edcB BAGF | f3 e d2 f2 | edcB A4 | B2 B2 .e4 | c2 c2 .f4 | .d4 fedc | %15
w: ||||||||
 B2 A2 B4- | B4 z4 |] %17
w: ||
V:2
 D2 D2 D2 D2 | CDEC D2 D2 | F2 F2 F2 GF | =E2 E2 z4 | D2 D2 D2 D2 | CDEC D2 D2 | F2 F2 F2 GF | %7
 =E2 E2 z4 | F3 F E2 z2 | GFED C2 .F2 | F3 F F2 F2 | G2 C2 C4 | D2 D2 C2 z e | F2 F2 F2 z e | %14
 z2 _A2 z4 | D2 E2 D4- | D4 z4 |] %17
V:3
 x8 | x8 | x8 | x8 | x8 | x8 | x8 | x8 | x8 | x8 | x8 | x8 | z4 z2 C2 | z4 z2 F2 | F2 z f G2 FE | %15
 x8 | x8 |] %17
V:4
 B,2 B,2 B,2 B,2 | CB,A,C B,2 B,2 | B,2 B,2 B,A,B,C | C2 G,2 A,4 | B,2 B,2 B,2 B,2 | %5
 CB,A,C B,2 B,2 | B,2 B,2 B,A,B,C | C2 G,2 A,4 | B,2 B,2 B,2 B,2 | C2 C2 C2 C2 | %10
 B,2[K:bass] A,2 B,2 _A,2 | G,2 F,2 F,4 | B,2 B,2 G,2 G,2 | A,2 A,2 B,2 B,2 | B,2 B,2 B,2 B,2 | %15
 F,2 C2 B,4- | B,4 z4 |] %17
V:5
 z4 B,,2 B,,2 | F,2 F,2 B,,2 B,,2 | B,,C,D,E, F,2 F,2 | C,2 C,2 F,4 | z4 B,,2 B,,2 | %5
 F,2 F,2 B,,2 B,,2 | B,,C,D,E, F,2 F,2 | C,2 C,2 F,4 | D,2 D,2 D,2 D,2 | C,D,E,=E, F,2 _E,2 | %10
 D,2 C,2 B,,2 B,,2 | E,2 D,2 z4 | G,2 F,2 E,2 E,2 | F,2 E,2 D,2 C,2 | B,,C,D,B,, E,2 E,2 | %15
 z2 F,,2 B,,4- | B,,4 z4 |] %17

